X: 39743
T: Thadelo's
R: barndance
M: 4/4
K: Dmajor
B2|A2 AB AFDE|F2 FE F3G|A2 AB AFDF|G2 E2 E3 F|
G2 GF GFEF|G2 GF G3 B|A2 AB AGFE|F2 D2 D2:|
de|f2 f2 e2 fe|d2 A2 A3A|(3Bcd BA BcdB|c2 A2 A2 de|
f2 f2 e2 fe|d2 A2 A3A|(3Bcd BA Bcdc|e2 d2 d2:|

